X:560
T:Docherty's Reel
C:Boys of the Lough
R:reel
H:
Z:
M:4/4
K:Ador
"Am"A,2 A,G, A,2 B,D|"G"EB,DB, G,A,B,D|"C"E2 EG "\D"A2 AG|"G\C"EGDB, "G"G,A,A,G,|
"Am"A,2 A,G, A,2 B,D|"G"EB,DB, G,A,B,D|"C"E2 EG "\D"A2 AG|1"G"EGDB, "Am"B,A,A,G,:|2"C"EGDB, "D"B,A, A,2||
|:"Am"EAAA EAAG|"G"EGDB, G,A,B,D|"Em"B2 BA B2 BA|"G"GEDB, "\C"G,A,B,D|
"Am\D"EAAA EAAG|"G"EGDB, G,A,B,D|"Em"B2 BA "C"GABA|1"G"GEDB, "D"B,A, A,2:|2"G"GEDB, "Am"B,A,A,G,||
